X: 1143
T: The Moran Creek Reel (A63)
N: page A63
N: heptatonic
C: Jules Mor?
M: 2/4
L: 1/16
K: G
uBd|:"G"vg2ga gedg|edBA GABd|g2uga geduA|"D"Bdef fdBG|
"G"g2uga gedg|"D"fdBA "G"G2AB|"D"cAFA dAFD|"G" [GB]2[GB][GB] [GB]2 B,A,|:
G,2uB,D EDB,uD|EDEF GEDuB,|G,2B,D EDB,uG,|"Am"A,G,A,B, EDCD|
"G"G,2B,D EDB,uD|EDEF GEDuB,|G,B,DG BABuc|"Am"dcAF "G"G4:|
